src/fields.svg

<svg xmlns="http://www.w3.org/2000/svg" width="16" height="16" viewBox="0 0 16 16">
<path d="m4 3v4h11v-4zm0 10h7v-4h-7zm1-3h5v2h-5zm-4 5h1.4v-14h-1.4z"/>
</svg>

<svg xmlns="http://www.w3.org/2000/svg" width="16" height="16" viewBox="0 0 16 16">
<path d="M4,3v4h11V3H4z M4,13h7V9H4V13z M5,10h5v2H5V10z M1,15h1.4V1H1V15z"/>
</svg>
